client/src/assets/svgs/PayProviders/applepay.svg

<svg viewBox="0 0 47 32" fill="none" xmlns="http://www.w3.org/2000/svg">
<path d="M0 4C0 1.791 1.80343 0 4.02854 0H42.9715C45.1966 0 47 1.791 47 4V28C47 30.209 45.1966 32 42.9715 32H4.02854C1.80343 32 0 30.209 0 28V4Z" fill="white"/>
<path d="M14.182 15.275C14.17 13.942 15.196 13.266 15.358 13.16C15.368 13.153 15.374 13.149 15.377 13.147C14.724 12.169 13.704 12.063 13.352 12.037C12.799 12.005 12.295 12.205 11.888 12.367C11.626 12.471 11.404 12.559 11.235 12.559C11.045 12.559 10.814 12.466 10.555 12.362C10.215 12.226 9.826 12.069 9.419 12.077C8.485 12.09 7.616 12.626 7.139 13.478C6.159 15.183 6.884 17.707 7.831 19.095C8.295 19.782 8.85 20.536 9.582 20.509C9.904 20.497 10.135 20.397 10.375 20.294C10.651 20.175 10.938 20.053 11.385 20.053C11.817 20.053 12.091 20.173 12.354 20.288C12.604 20.397 12.844 20.502 13.201 20.496C13.959 20.483 14.436 19.809 14.9 19.121C15.401 18.383 15.621 17.664 15.654 17.554L15.658 17.541C15.658 17.541 15.651 17.537 15.64 17.532C15.473 17.454 14.194 16.862 14.181 15.274L14.182 15.275Z" fill="#0F1A30"/>
<path d="M13.359 9.33398C12.804 9.35998 12.118 9.70399 11.726 10.187C11.367 10.603 11.06 11.277 11.138 11.912C11.765 11.965 12.392 11.595 12.784 11.126C13.169 10.644 13.424 9.99598 13.359 9.33498V9.33398Z" fill="#0F1A30"/>
<path d="M38.513 12.948L36.651 19.034H36.618L34.756 12.948H33.103L35.782 20.449L35.638 20.905C35.396 21.678 35.004 21.976 34.305 21.976C34.181 21.976 33.939 21.963 33.841 21.95V23.186C33.932 23.212 34.324 23.226 34.442 23.226C35.984 23.226 36.709 22.631 37.343 20.827L40.12 12.95H38.513V12.948Z" fill="#0F1A30"/>
<path d="M29.5029 12.849C27.8239 12.849 26.5829 13.82 26.5369 15.155H27.9609C28.0789 14.521 28.6599 14.104 29.4569 14.104C30.4239 14.104 30.9659 14.56 30.9659 15.399V15.967L28.9929 16.086C27.1569 16.198 26.1639 16.958 26.1639 18.28C26.1639 19.615 27.1899 20.5 28.6599 20.5C29.6529 20.5 30.5739 19.991 30.9919 19.185H31.0249V20.421H32.4879V15.293C32.4879 13.806 31.3119 12.848 29.5019 12.848L29.5029 12.849ZM30.9659 17.627C30.9659 18.592 30.1559 19.279 29.0839 19.279C28.2409 19.279 27.7059 18.869 27.7059 18.241C27.7059 17.593 28.2219 17.217 29.2089 17.157L30.9669 17.045L30.9659 17.627Z" fill="#0F1A30"/>
<path d="M22.42 10.12H18.598V20.423H20.179V16.901H22.368C24.367 16.901 25.772 15.513 25.772 13.505C25.772 11.497 24.393 10.121 22.42 10.121V10.12ZM21.996 15.559H20.18V11.468H22.003C23.375 11.468 24.159 12.208 24.159 13.51C24.159 14.812 23.375 15.559 21.996 15.559Z" fill="#0F1A30"/>
</svg>

<!-- Generated by IcoMoon.io -->
<svg version="1.1" xmlns="http://www.w3.org/2000/svg" width="47" height="32" viewBox="0 0 47 32">
<title>applepay</title>
<path fill="#fff" d="M0 4c0-2.209 1.792-4 4.003-4h38.696c2.211 0 4.003 1.791 4.003 4v24c0 2.209-1.792 4-4.003 4h-38.696c-2.211 0-4.003-1.791-4.003-4v-24z"></path>
<path fill="#0f1a30" d="M14.182 15.275c-0.012-1.333 1.014-2.009 1.176-2.115 0.010-0.007 0.016-0.011 0.019-0.013-0.653-0.978-1.673-1.084-2.025-1.11-0.553-0.032-1.057 0.168-1.464 0.33-0.262 0.104-0.484 0.192-0.653 0.192-0.19 0-0.421-0.093-0.68-0.197-0.34-0.136-0.729-0.293-1.136-0.285-0.934 0.013-1.803 0.549-2.28 1.401-0.98 1.705-0.255 4.229 0.692 5.617 0.464 0.687 1.019 1.441 1.751 1.414 0.322-0.012 0.553-0.112 0.793-0.215 0.276-0.119 0.563-0.241 1.010-0.241 0.432 0 0.706 0.12 0.969 0.235 0.25 0.109 0.49 0.214 0.847 0.208 0.758-0.013 1.235-0.687 1.699-1.375 0.501-0.738 0.721-1.457 0.754-1.567l0.004-0.013c-0.001-0.001-0.007-0.004-0.018-0.009-0.167-0.078-1.446-0.67-1.459-2.258z"></path>
<path fill="#0f1a30" d="M13.359 9.334c-0.555 0.026-1.241 0.37-1.633 0.853-0.359 0.416-0.666 1.090-0.588 1.725 0.627 0.053 1.254-0.317 1.646-0.786 0.385-0.482 0.64-1.13 0.575-1.791z"></path>
<path fill="#0f1a30" d="M38.513 12.948l-1.862 6.086h-0.033l-1.862-6.086h-1.653l2.679 7.501-0.144 0.456c-0.242 0.773-0.634 1.071-1.333 1.071-0.124 0-0.366-0.013-0.464-0.026v1.236c0.091 0.026 0.483 0.040 0.601 0.040 1.542 0 2.267-0.595 2.901-2.399l2.777-7.877h-1.607z"></path>
<path fill="#0f1a30" d="M29.503 12.849c-1.679 0-2.92 0.971-2.966 2.306h1.424c0.118-0.634 0.699-1.051 1.496-1.051 0.967 0 1.509 0.456 1.509 1.295v0.568l-1.973 0.119c-1.836 0.112-2.829 0.872-2.829 2.194 0 1.335 1.026 2.22 2.496 2.22 0.993 0 1.914-0.509 2.332-1.315h0.033v1.236h1.463v-5.128c0-1.487-1.176-2.445-2.986-2.445zM30.966 17.627c0 0.965-0.81 1.652-1.882 1.652-0.843 0-1.378-0.41-1.378-1.038 0-0.648 0.516-1.024 1.503-1.084l1.758-0.112v0.582z"></path>
<path fill="#0f1a30" d="M22.42 10.12h-3.822v10.303h1.581v-3.522h2.189c1.999 0 3.404-1.388 3.404-3.396s-1.379-3.384-3.352-3.384zM21.996 15.559h-1.816v-4.091h1.823c1.372 0 2.156 0.74 2.156 2.042s-0.784 2.049-2.163 2.049z"></path>
</svg>
